icons/src/backpack.svg

<!--Generator: Apple Native CoreSVG 341-->
<!DOCTYPE svg  PUBLIC '-//W3C//DTD SVG 1.1//EN'  'http://www.w3.org/Graphics/SVG/1.1/DTD/svg11.dtd'>
<svg version="1.1" viewBox="0 0 16.426 25.498" xmlns="http://www.w3.org/2000/svg">
 <rect width="16.426" height="25.498" opacity="0"/>
 <path d="m5.0492 24.492h5.9668c3.3984 0 5.0781-1.7188 5.0488-5.1563-0.039-3.9257-0.0586-6.7773-0.1562-8.916-0.2832-6.289-2.0508-8.1347-7.8711-8.1347s-7.5977 1.8457-7.8809 8.1347c-0.097657 2.1387-0.11719 4.9903-0.15625 8.916-0.029297 3.4375 1.6504 5.1563 5.0488 5.1563zm0-1.4356c-2.5879 0-3.6328-1.0644-3.6133-3.7011 0.03907-3.9258 0.06836-6.7578 0.16602-8.8672 0.24414-5.5274 1.416-6.7578 6.4356-6.7578 5.0098 0 6.1816 1.2305 6.4355 6.7578 0.0879 2.1094 0.1172 4.9414 0.1563 8.8672 0.0195 2.6367-1.0254 3.7011-3.6133 3.7011zm2.9883-23.057c-1.875 0-3.1934 1.2695-3.1934 2.998h1.377c0-0.94727 0.74219-1.6211 1.8164-1.6211 1.0644 0 1.8164 0.67383 1.8164 1.6211h1.3769c0-1.7285-1.3281-2.998-3.1933-2.998zm-3.2129 20.644h6.4258c0.8789 0 1.4551-0.5761 1.4551-1.4453v-4.9512c0-0.8789-0.5762-1.455-1.4551-1.455h-6.4258c-0.87891 0-1.4648 0.5859-1.4648 1.455v4.9512c0 0.8594 0.58594 1.4453 1.4648 1.4453zm0.23437-1.3672c-0.19531 0-0.32227-0.1269-0.32227-0.3125v-4.4824c0-0.1953 0.12696-0.3222 0.32227-0.3222h5.9472c0.1953 0 0.3223 0.1269 0.3223 0.3222v4.4824c0 0.1856-0.127 0.3125-0.3223 0.3125zm-0.91797-2.6367h7.7832v-1.2304h-7.7832z" fill="#fff"/>
</svg>

<?xml version="1.0" encoding="UTF-8"?>
<!--Generator: Apple Native CoreSVG 341-->
<!DOCTYPE svg
PUBLIC "-//W3C//DTD SVG 1.1//EN"
       "http://www.w3.org/Graphics/SVG/1.1/DTD/svg11.dtd">
<svg version="1.1" xmlns="http://www.w3.org/2000/svg" xmlns:xlink="http://www.w3.org/1999/xlink" viewBox="0 0 16.4265 25.498">
 <g>
  <rect height="25.498" opacity="0" width="16.4265" x="0" y="0"/>
  <path d="M5.0492 24.4922L11.016 24.4922C14.4144 24.4922 16.0941 22.7734 16.0648 19.3359C16.0258 15.4102 16.0062 12.5586 15.9086 10.4199C15.6254 4.13086 13.8578 2.28516 8.03749 2.28516C2.21717 2.28516 0.43983 4.13086 0.156627 10.4199C0.0589704 12.5586 0.0394392 15.4102 0.000376668 19.3359C-0.0289202 22.7734 1.65077 24.4922 5.0492 24.4922ZM5.0492 23.0566C2.46131 23.0566 1.41639 21.9922 1.43592 19.3555C1.47499 15.4297 1.50428 12.5977 1.60194 10.4883C1.84608 4.96094 3.01795 3.73047 8.03749 3.73047C13.0473 3.73047 14.2191 4.96094 14.473 10.4883C14.5609 12.5977 14.5902 15.4297 14.6293 19.3555C14.6488 21.9922 13.6039 23.0566 11.016 23.0566ZM8.03749 0C6.16249 0 4.84413 1.26953 4.84413 2.99805L6.22108 2.99805C6.22108 2.05078 6.96327 1.37695 8.03749 1.37695C9.10194 1.37695 9.85389 2.05078 9.85389 2.99805L11.2308 2.99805C11.2308 1.26953 9.90272 0 8.03749 0ZM4.8246 20.6445L11.2504 20.6445C12.1293 20.6445 12.7055 20.0684 12.7055 19.1992L12.7055 14.248C12.7055 13.3691 12.1293 12.793 11.2504 12.793L4.8246 12.793C3.94569 12.793 3.35975 13.3789 3.35975 14.248L3.35975 19.1992C3.35975 20.0586 3.94569 20.6445 4.8246 20.6445ZM5.05897 19.2773C4.86366 19.2773 4.7367 19.1504 4.7367 18.9648L4.7367 14.4824C4.7367 14.2871 4.86366 14.1602 5.05897 14.1602L11.0062 14.1602C11.2015 14.1602 11.3285 14.2871 11.3285 14.4824L11.3285 18.9648C11.3285 19.1504 11.2015 19.2773 11.0062 19.2773ZM4.141 16.6406L11.9242 16.6406L11.9242 15.4102L4.141 15.4102Z" fill="white"/>
 </g>
</svg>
